apps/mobile/assets/icons/phosphor/package.svg

<svg
  height="32"
  viewBox="0 0 256 256"
  width="32"
  xmlns="http://www.w3.org/2000/svg"
>
  <path
    d="m223.68 66.15-88-48.15a15.88 15.88 0 0 0 -15.36 0l-88 48.17a16 16 0 0 0 -8.32 14v95.64a16 16 0 0 0 8.32 14l88 48.17a15.88 15.88 0 0 0 15.36 0l88-48.17a16 16 0 0 0 8.32-14v-95.63a16 16 0 0 0 -8.32-14.03zm-95.68-34.15 80.34 44-29.77 16.3-80.35-44zm0 88-80.34-44 33.9-18.56 80.34 44zm-88-30 80 43.78v85.79l-80-43.75zm176 85.78-80 43.79v-85.75l32-17.51v35.69a8 8 0 0 0 16 0v-44.45l32-17.55v85.77z"
  />
</svg>

<svg xmlns="http://www.w3.org/2000/svg" width="32" height="32" fill="#000000" viewBox="0 0 256 256"><path d="M223.68,66.15,135.68,18a15.88,15.88,0,0,0-15.36,0l-88,48.17a16,16,0,0,0-8.32,14v95.64a16,16,0,0,0,8.32,14l88,48.17a15.88,15.88,0,0,0,15.36,0l88-48.17a16,16,0,0,0,8.32-14V80.18A16,16,0,0,0,223.68,66.15ZM128,32l80.34,44-29.77,16.3-80.35-44ZM128,120,47.66,76l33.9-18.56,80.34,44ZM40,90l80,43.78v85.79L40,175.82Zm176,85.78h0l-80,43.79V133.82l32-17.51V152a8,8,0,0,0,16,0V107.55L216,90v85.77Z"></path></svg>
